poi/svg/1105.svg

<?xml version="1.0" encoding="UTF-8" standalone="no"?>
<svg width="11.2889mm" height="11.2889mm"
 viewBox="0 0 32 32"
 xmlns="http://www.w3.org/2000/svg" xmlns:xlink="http://www.w3.org/1999/xlink"  version="1.2" baseProfile="tiny">
<title>Qt SVG Document</title>
<desc>Generated with Qt</desc>
<defs>
</defs>
<g fill="none" stroke="black" stroke-width="1" fill-rule="evenodd" stroke-linecap="square" stroke-linejoin="bevel" >

<g fill="#3d97f1" fill-opacity="1" stroke="none" transform="matrix(1,0,0,1,0,0)"
font-family="MS Shell Dlg 2" font-size="7.8" font-weight="400" font-style="normal" 
>
<path vector-effect="non-scaling-stroke" fill-rule="evenodd" d="M37.2598,16 C37.2598,27.7415 27.7415,37.2598 16,37.2598 C4.25851,37.2598 -5.25984,27.7415 -5.25984,16 C-5.25984,4.25851 4.25851,-5.25984 16,-5.25984 C27.7415,-5.25984 37.2598,4.25851 37.2598,16 "/>
</g>

<g fill="#ffffff" fill-opacity="0.94902" stroke="none" transform="matrix(1,0,0,1,16,12.5984)"
font-family="MS Shell Dlg 2" font-size="7.8" font-weight="400" font-style="normal" 
>
<path vector-effect="none" fill-rule="evenodd" d="M9.76367,-6.46436 L9.76367,-5.2832 L-11.0166,2.46436 L-11.0166,1.32324 L9.76367,-6.46436 M-3.34912,-2.46045 C-3.73617,-2.46045 -4.07983,-2.60392 -4.38013,-2.89087 C-4.68042,-3.17782 -4.83057,-3.50814 -4.83057,-3.88184 C-4.83057,-4.26888 -4.68042,-4.5992 -4.38013,-4.8728 C-4.07983,-5.1464 -3.73617,-5.2832 -3.34912,-5.2832 C-2.93538,-5.2832 -2.59172,-5.1464 -2.31812,-4.8728 C-2.04451,-4.5992 -1.90771,-4.26888 -1.90771,-3.88184 C-1.90771,-3.50814 -2.04451,-3.17782 -2.31812,-2.89087 C-2.59172,-2.60392 -2.93538,-2.46045 -3.34912,-2.46045 M6.58057,3.98584 C6.79411,3.98584 6.99097,4.06925 7.17114,4.23608 C7.35132,4.40291 7.44141,4.63314 7.44141,4.92676 L7.44141,14.5161 C7.44141,14.743 7.35132,14.9432 7.17114,15.1167 C6.99097,15.2902 6.79411,15.377 6.58057,15.377 L-7.11279,15.377 C-7.39307,15.377 -7.61995,15.2902 -7.79346,15.1167 C-7.96696,14.9432 -8.05371,14.743 -8.05371,14.5161 L-8.05371,4.92676 C-8.05371,4.63314 -7.96696,4.40291 -7.79346,4.23608 C-7.61995,4.06925 -7.39307,3.98584 -7.11279,3.98584 L-1.38721,3.98584 L-1.38721,-0.558594 L0.214355,-1.21924 L0.674805,3.98584 L6.58057,3.98584 M-0.806641,6.16797 C-0.806641,6.04785 -0.853353,5.94108 -0.946777,5.84766 C-1.0402,5.75423 -1.16032,5.70752 -1.30713,5.70752 L-6.37207,5.70752 C-6.51888,5.70752 -6.639,5.75423 -6.73242,5.84766 C-6.82585,5.94108 -6.87256,6.04785 -6.87256,6.16797 L-6.87256,9.15088 C-6.87256,9.31104 -6.82585,9.44784 -6.73242,9.56128 C-6.639,9.67472 -6.51888,9.73145 -6.37207,9.73145 L-1.30713,9.73145 C-1.16032,9.73145 -1.0402,9.67472 -0.946777,9.56128 C-0.853353,9.44784 -0.806641,9.31104 -0.806641,9.15088 L-0.806641,6.16797 M6.24023,6.16797 C6.24023,5.80762 6.09342,5.62744 5.7998,5.62744 L0.915039,5.62744 C0.781576,5.62744 0.664795,5.68083 0.564697,5.7876 C0.4646,5.89437 0.414551,6.02116 0.414551,6.16797 L0.414551,9.15088 C0.414551,9.28434 0.4646,9.40112 0.564697,9.50122 C0.664795,9.60132 0.781576,9.65137 0.915039,9.65137 L5.7998,9.65137 C5.93327,9.65137 6.04004,9.60132 6.12012,9.50122 C6.2002,9.40112 6.24023,9.28434 6.24023,9.15088 L6.24023,6.16797 M1.53564,-4.12207 C1.1486,-4.12207 0.818278,-4.25887 0.544678,-4.53247 C0.271077,-4.80607 0.134277,-5.16309 0.134277,-5.60352 C0.134277,-5.99056 0.271077,-6.32756 0.544678,-6.6145 C0.818278,-6.90145 1.1486,-7.04492 1.53564,-7.04492 C1.90934,-7.04492 2.23966,-6.90145 2.52661,-6.6145 C2.81356,-6.32756 2.95703,-5.99056 2.95703,-5.60352 C2.95703,-5.16309 2.81356,-4.80607 2.52661,-4.53247 C2.23966,-4.25887 1.90934,-4.12207 1.53564,-4.12207 "/>
</g>

<g fill="#3d97f1" fill-opacity="1" stroke="none" transform="matrix(1,0,0,1,0,0)"
font-family="MS Shell Dlg 2" font-size="7.8" font-weight="400" font-style="normal" 
>
</g>
</g>
</svg>

<?xml version="1.0" encoding="UTF-8" standalone="no"?>
<svg
   xmlns:dc="http://purl.org/dc/elements/1.1/"
   xmlns:cc="http://creativecommons.org/ns#"
   xmlns:rdf="http://www.w3.org/1999/02/22-rdf-syntax-ns#"
   xmlns:svg="http://www.w3.org/2000/svg"
   xmlns="http://www.w3.org/2000/svg"
   xmlns:sodipodi="http://sodipodi.sourceforge.net/DTD/sodipodi-0.dtd"
   xmlns:inkscape="http://www.inkscape.org/namespaces/inkscape"
   inkscape:version="1.0 (4035a4fb49, 2020-05-01)"
   sodipodi:docname="1105.svg"
   id="svg20"
   version="1.2"
   viewBox="0 0 42.519639 42.519639"
   height="14.999999mm"
   width="14.999999mm">
  <metadata
     id="metadata24">
    <rdf:RDF>
      <cc:Work
         rdf:about="">
        <dc:format>image/svg+xml</dc:format>
        <dc:type
           rdf:resource="http://purl.org/dc/dcmitype/StillImage" />
        <dc:title>Qt SVG Document</dc:title>
      </cc:Work>
    </rdf:RDF>
  </metadata>
  <sodipodi:namedview
     inkscape:current-layer="svg20"
     inkscape:window-maximized="1"
     inkscape:window-y="-9"
     inkscape:window-x="-9"
     inkscape:cy="28.346482"
     inkscape:cx="28.346482"
     inkscape:zoom="18.047943"
     fit-margin-bottom="0"
     fit-margin-right="0"
     fit-margin-left="0"
     fit-margin-top="0"
     showgrid="false"
     id="namedview22"
     inkscape:window-height="1013"
     inkscape:window-width="1920"
     inkscape:pageshadow="2"
     inkscape:pageopacity="0"
     guidetolerance="10"
     gridtolerance="10"
     objecttolerance="10"
     borderopacity="1"
     bordercolor="#666666"
     pagecolor="#ffffff" />
  <title
     id="title2">Qt SVG Document</title>
  <desc
     id="desc4">Generated with Qt</desc>
  <defs
     id="defs6" />
  <g
     transform="translate(5.25984,5.25984)"
     id="g18"
     stroke-linejoin="bevel"
     stroke-linecap="square"
     fill-rule="evenodd"
     stroke-width="1"
     stroke="#000000"
     fill="none">
    <g
       id="g10"
       font-style="normal"
       font-weight="400"
       font-size="7.8px"
       font-family="'MS Shell Dlg 2'"
       stroke="none"
       fill-opacity="1"
       fill="#3d97f1">
      <path
         id="path8"
         d="M 37.2598,16 C 37.2598,27.7415 27.7415,37.2598 16,37.2598 4.25851,37.2598 -5.25984,27.7415 -5.25984,16 -5.25984,4.25851 4.25851,-5.25984 16,-5.25984 27.7415,-5.25984 37.2598,4.25851 37.2598,16"
         fill-rule="evenodd"
         vector-effect="non-scaling-stroke" />
    </g>
    <g
       id="g14"
       font-style="normal"
       font-weight="400"
       font-size="7.8px"
       font-family="'MS Shell Dlg 2'"
       transform="translate(16,12.5984)"
       stroke="none"
       fill-opacity="0.94902"
       fill="#ffffff">
      <path
         id="path12"
         d="M 9.76367,-6.46436 V -5.2832 L -11.0166,2.46436 V 1.32324 l 20.78027,-7.7876 m -13.11279,4.00391 c -0.38705,0 -0.73071,-0.14347 -1.03101,-0.43042 -0.30029,-0.28695 -0.45044,-0.61727 -0.45044,-0.99097 0,-0.38704 0.15015,-0.71736 0.45044,-0.99096 0.3003,-0.2736 0.64396,-0.4104 1.03101,-0.4104 0.41374,0 0.7574,0.1368 1.031,0.4104 0.27361,0.2736 0.41041,0.60392 0.41041,0.99096 0,0.3737 -0.1368,0.70402 -0.41041,0.99097 -0.2736,0.28695 -0.61726,0.43042 -1.031,0.43042 m 9.92969,6.44629 c 0.21354,0 0.4104,0.08341 0.59057,0.25024 0.18018,0.16683 0.27027,0.39706 0.27027,0.69068 v 9.58934 c 0,0.2269 -0.09009,0.4271 -0.27027,0.6006 C 6.99097,15.2902 6.79411,15.377 6.58057,15.377 H -7.11279 c -0.28028,0 -0.50716,-0.0868 -0.68067,-0.2603 -0.1735,-0.1735 -0.26025,-0.3737 -0.26025,-0.6006 V 4.92676 c 0,-0.29362 0.08675,-0.52385 0.26025,-0.69068 0.17351,-0.16683 0.40039,-0.25024 0.68067,-0.25024 h 5.72558 V -0.558594 L 0.214355,-1.21924 0.674805,3.98584 H 6.58057 m -7.387211,2.18213 c 0,-0.12012 -0.046712,-0.22689 -0.140136,-0.32031 C -1.0402,5.75423 -1.16032,5.70752 -1.30713,5.70752 h -5.06494 c -0.14681,0 -0.26693,0.04671 -0.36035,0.14014 -0.09343,0.09342 -0.14014,0.20019 -0.14014,0.32031 v 2.98291 c 0,0.16016 0.04671,0.29696 0.14014,0.4104 0.09342,0.11344 0.21354,0.17017 0.36035,0.17017 h 5.06494 c 0.14681,0 0.26693,-0.05673 0.360353,-0.17017 0.093424,-0.11344 0.140136,-0.25024 0.140136,-0.4104 V 6.16797 m 7.046871,0 C 6.24023,5.80762 6.09342,5.62744 5.7998,5.62744 H 0.915039 C 0.781576,5.62744 0.664795,5.68083 0.564697,5.7876 0.4646,5.89437 0.414551,6.02116 0.414551,6.16797 v 2.98291 c 0,0.13346 0.050049,0.25024 0.150146,0.35034 0.100098,0.1001 0.216879,0.15015 0.350342,0.15015 H 5.7998 c 0.13347,0 0.24024,-0.05005 0.32032,-0.15015 C 6.2002,9.40112 6.24023,9.28434 6.24023,9.15088 V 6.16797 M 1.53564,-4.12207 c -0.38704,0 -0.717362,-0.1368 -0.990962,-0.4104 -0.273601,-0.2736 -0.410401,-0.63062 -0.410401,-1.07105 0,-0.38704 0.1368,-0.72404 0.410401,-1.01098 0.2736,-0.28695 0.603922,-0.43042 0.990962,-0.43042 0.3737,0 0.70402,0.14347 0.99097,0.43042 0.28695,0.28694 0.43042,0.62394 0.43042,1.01098 0,0.44043 -0.14347,0.79745 -0.43042,1.07105 -0.28695,0.2736 -0.61727,0.4104 -0.99097,0.4104"
         fill-rule="evenodd"
         vector-effect="none" />
    </g>
    <g
       id="g16"
       font-style="normal"
       font-weight="400"
       font-size="7.8px"
       font-family="'MS Shell Dlg 2'"
       stroke="none"
       fill-opacity="1"
       fill="#3d97f1" />
  </g>
</svg>
